X: 14998
T: Gentle Maiden, The
R: waltz
M: 3/4
K: Gmajor
"G" G3 A G2|"D7" F2 E2 D2|"G" d6|"C" e2 f2 g2|
"G" d3 c B2|"am" A2~G|1 "am" E3-|E4 "D7":|2 "G" G3-|G4||
"G" d2 e2 f2|g4 g2|g6-|"C" g2 f2 e2|
"G" d3 c B2|"am" A4 G2|"am" E6-|E4 "D7" F2|
"G" G3 A G2|"D7" F2 E2 D2|"G" d6|"C" e2 f2 g2|
"G" d3 c B2|"D7" A4 G2|"G" G6-|G4||

